apps/22/thermometer.svg

<?xml version="1.0" encoding="UTF-8" standalone="no"?>
<!-- Created with Inkscape (http://www.inkscape.org/) -->

<svg
   xmlns:dc="http://purl.org/dc/elements/1.1/"
   xmlns:cc="http://creativecommons.org/ns#"
   xmlns:rdf="http://www.w3.org/1999/02/22-rdf-syntax-ns#"
   xmlns:svg="http://www.w3.org/2000/svg"
   xmlns="http://www.w3.org/2000/svg"
   xmlns:sodipodi="http://sodipodi.sourceforge.net/DTD/sodipodi-0.dtd"
   xmlns:inkscape="http://www.inkscape.org/namespaces/inkscape"
   width="22"
   height="22"
   id="svg27665"
   version="1.1"
   inkscape:version="0.91+devel r"
   sodipodi:docname="thermometer.svg">
  <defs
     id="defs27667" />
  <sodipodi:namedview
     id="base"
     pagecolor="#ffffff"
     bordercolor="#666666"
     borderopacity="1.0"
     inkscape:pageopacity="0.0"
     inkscape:pageshadow="2"
     inkscape:zoom="32"
     inkscape:cx="13.20663"
     inkscape:cy="9.5338895"
     inkscape:document-units="px"
     inkscape:current-layer="layer1"
     showgrid="true"
     inkscape:window-width="1920"
     inkscape:window-height="1023"
     inkscape:window-x="-10"
     inkscape:window-y="35"
     inkscape:window-maximized="1"
     inkscape:snap-bbox="true"
     inkscape:bbox-paths="true"
     inkscape:bbox-nodes="true"
     inkscape:snap-bbox-edge-midpoints="true"
     inkscape:snap-bbox-midpoints="true"
     inkscape:object-paths="true"
     inkscape:snap-intersection-paths="true"
     inkscape:object-nodes="true"
     inkscape:snap-smooth-nodes="true"
     inkscape:snap-midpoints="true"
     inkscape:snap-object-midpoints="true"
     inkscape:snap-center="true"
     inkscape:snap-global="true"
     showguides="false"
     inkscape:guide-bbox="true"
     fit-margin-top="0"
     fit-margin-left="0"
     fit-margin-right="0"
     fit-margin-bottom="0"
     inkscape:showpageshadow="false">
    <sodipodi:guide
       orientation="0,1"
       position="599.99999,299.99993"
       id="guide3572" />
    <sodipodi:guide
       orientation="1,0"
       position="294.41949,12.121716"
       id="guide3574" />
    <sodipodi:guide
       orientation="0,1"
       position="456.04389,599.99992"
       id="guide3576" />
    <sodipodi:guide
       orientation="0,1"
       position="-2.8882813e-06,-8.4406273e-05"
       id="guide3578" />
    <sodipodi:guide
       orientation="1,0"
       position="-2.8882813e-06,157.58366"
       id="guide3580" />
    <sodipodi:guide
       orientation="1,0"
       position="599.99999,121.21821"
       id="guide3582" />
    <sodipodi:guide
       orientation="0,1"
       position="599.99999,-714.34359"
       id="guide5928" />
    <sodipodi:guide
       orientation="0,1"
       position="599.99999,-414.34359"
       id="guide5930" />
    <sodipodi:guide
       orientation="0,1"
       position="599.99999,-1014.3435"
       id="guide5932" />
    <sodipodi:guide
       orientation="0,1"
       position="451.57029,524.99606"
       id="guide5294" />
    <sodipodi:guide
       orientation="0,1"
       position="451.57029,75.013516"
       id="guide5296" />
    <sodipodi:guide
       orientation="0,1"
       position="496.01499,-931.36409"
       id="guide5413" />
    <sodipodi:guide
       orientation="0,1"
       position="457.34859,-489.34389"
       id="guide5415" />
    <inkscape:grid
       type="xygrid"
       id="grid3070"
       empspacing="5"
       visible="true"
       enabled="true"
       snapvisiblegridlinesonly="true"
       originx="4.3243213e-05px"
       originy="-2.6947047e-05px" />
  </sodipodi:namedview>
  <metadata
     id="metadata27670">
    <rdf:RDF>
      <cc:Work
         rdf:about="">
        <dc:format>image/svg+xml</dc:format>
        <dc:type
           rdf:resource="http://purl.org/dc/dcmitype/StillImage" />
        <dc:title></dc:title>
      </cc:Work>
    </rdf:RDF>
  </metadata>
  <g
     inkscape:label="Camada 1"
     inkscape:groupmode="layer"
     id="layer1"
     transform="translate(3364.4171,-2094.7186)">
    <path
       style="color:#000000;font-style:normal;font-variant:normal;font-weight:normal;font-stretch:normal;font-size:medium;line-height:normal;font-family:sans-serif;text-indent:0;text-align:start;text-decoration:none;text-decoration-line:none;text-decoration-style:solid;text-decoration-color:#000000;letter-spacing:normal;word-spacing:normal;text-transform:none;direction:ltr;block-progression:tb;writing-mode:lr-tb;baseline-shift:baseline;text-anchor:start;white-space:normal;shape-padding:0;clip-rule:nonzero;display:inline;overflow:visible;visibility:visible;opacity:1;isolation:auto;mix-blend-mode:normal;color-interpolation:sRGB;color-interpolation-filters:linearRGB;solid-color:#000000;solid-opacity:1;fill:#27303a;fill-opacity:0.753280819999999968;fill-rule:nonzero;stroke:none;stroke-width:57.8928833;stroke-linecap:butt;stroke-linejoin:miter;stroke-miterlimit:4;stroke-dasharray:none;stroke-dashoffset:0;stroke-opacity:1;marker:none;color-rendering:auto;image-rendering:auto;shape-rendering:auto;text-rendering:auto;enable-background:accumulate"
       d="M 10.5 3 C 9.115 3 8 4.115 8 5.5 L 8 13.054688 C 7.36 13.707888 7.0011 14.5856 7 15.5 C 6.9999 17.433 8.567 19.0001 10.5 19 C 12.433 19.0001 14 17.433 14 15.5 C 14.0004 14.5835 13.6414 13.703428 13 13.048828 L 13 5.5 C 13 4.115 11.885 3 10.5 3 z M 10.5 5 C 10.7943 5 11 5.2057 11 5.5 L 11 14.003906 L 11.400391 14.304688 C 11.778091 14.587988 11.9993 15.029853 12 15.501953 C 11.999 16.341253 11.3396 17 10.5 17 C 9.6598 17 9 16.3402 9 15.5 C 9.0004 15.0274 9.2234625 14.586234 9.6015625 14.302734 L 10 14.001953 L 10 5.5 C 10 5.2057 10.2057 5 10.5 5 z M 14 5 L 14 6 L 17 6 L 17 5 L 14 5 z M 14 7 L 14 8 L 17 8 L 17 7 L 14 7 z M 14 9 L 14 10 L 17 10 L 17 9 L 14 9 z M 14 11 L 14 12 L 17 12 L 17 11 L 14 11 z "
       transform="translate(-3364.4171,2094.7186)"
       id="path4197" />
    <path
       style="color:#000000;font-style:normal;font-variant:normal;font-weight:normal;font-stretch:normal;font-size:medium;line-height:normal;font-family:sans-serif;text-indent:0;text-align:start;text-decoration:none;text-decoration-line:none;text-decoration-style:solid;text-decoration-color:#000000;letter-spacing:normal;word-spacing:normal;text-transform:none;direction:ltr;block-progression:tb;writing-mode:lr-tb;baseline-shift:baseline;text-anchor:start;white-space:normal;shape-padding:0;clip-rule:nonzero;display:inline;overflow:visible;visibility:visible;opacity:1;isolation:auto;mix-blend-mode:normal;color-interpolation:sRGB;color-interpolation-filters:linearRGB;solid-color:#000000;solid-opacity:1;fill:#f1f3f5;fill-opacity:0.90288714000000003;fill-rule:nonzero;stroke:none;stroke-width:2;stroke-linecap:butt;stroke-linejoin:miter;stroke-miterlimit:4;stroke-dasharray:none;stroke-dashoffset:0;stroke-opacity:1;marker:none;color-rendering:auto;image-rendering:auto;shape-rendering:auto;text-rendering:auto;enable-background:accumulate"
       d="M 10.5 1.9414062 L 10.5 1.9433594 C 8.5515 1.9433594 6.9492188 3.5456406 6.9492188 5.4941406 L 6.9492188 12.771484 C 6.3460187 13.559784 5.9504188 14.489788 5.9492188 15.492188 C 5.9492188 17.992688 7.9995 20.042969 10.5 20.042969 C 13.0005 20.042969 15.050781 17.992688 15.050781 15.492188 C 15.051281 14.486987 14.655581 13.553972 14.050781 12.763672 L 14.050781 5.4921875 C 14.050781 3.5436875 12.4485 1.9414062 10.5 1.9414062 z M 10.5 3 C 11.885 3 13 4.115 13 5.5 L 13 13.048828 C 13.6414 13.703428 14.0004 14.5835 14 15.5 C 14 17.433 12.433 19.0001 10.5 19 C 8.567 19.0001 6.9999 17.433 7 15.5 C 7 14.5856 7.36 13.707887 8 13.054688 L 8 5.5 C 8 4.115 9.115 3 10.5 3 z M 15 4 L 15 5 L 18 5 L 18 4 L 15 4 z M 10.5 5 C 10.2057 5 10 5.2057 10 5.5 L 10 14.001953 L 9.6015625 14.302734 C 9.2234625 14.586234 9.0004 15.0274 9 15.5 C 9 16.3402 9.6598 17 10.5 17 C 11.3396 17 11.999 16.341253 12 15.501953 C 11.9993 15.029853 11.778091 14.587987 11.400391 14.304688 L 11 14.003906 L 11 5.5 C 11 5.2057 10.7943 5 10.5 5 z M 15 6 L 15 7 L 18 7 L 18 6 L 15 6 z M 15 8 L 15 9 L 18 9 L 18 8 L 15 8 z M 15 10 L 15 11 L 18 11 L 18 10 L 15 10 z M 15 12 L 15 13 L 18 13 L 18 12 L 15 12 z "
       transform="translate(-3364.4171,2094.7186)"
       id="path4258" />
  </g>
</svg>

<?xml version="1.0" encoding="UTF-8"?>
<svg id="e" width="22" height="22" version="1.1" xmlns="http://www.w3.org/2000/svg" xmlns:cc="http://creativecommons.org/ns#" xmlns:dc="http://purl.org/dc/elements/1.1/" xmlns:rdf="http://www.w3.org/1999/02/22-rdf-syntax-ns#">
	<metadata id="a">
		<rdf:RDF>
			<cc:Work rdf:about="">
				<dc:format>image/svg+xml</dc:format>
				<dc:type rdf:resource="http://purl.org/dc/dcmitype/StillImage"/>
				<dc:title/>
			</cc:Work>
		</rdf:RDF>
	</metadata>
	<defs id="c">
		<style id="current-color-scheme" type="text/css">.ColorScheme-Text {color:#090d11;}.ColorScheme-Background{color:#ffffff;}</style>
	</defs>
	<path id="b" class="ColorScheme-Text" d="m10.5 3c-1.385 0-2.5 1.115-2.5 2.5v7.5547c-0.64 0.6532-0.9989 1.5309-1 2.4453-1e-4 1.933 1.567 3.5001 3.5 3.5 1.933 1e-4 3.5-1.567 3.5-3.5 4e-4 -0.9165-0.3586-1.7966-1-2.4512v-7.5488c0-1.385-1.115-2.5-2.5-2.5zm0 2c0.2943 0 0.5 0.2057 0.5 0.5v8.5039l0.4004 0.3008c0.3777 0.2833 0.5989 0.7252 0.5996 1.1973-1e-3 0.8393-0.6604 1.498-1.5 1.498-0.8402 0-1.5-0.6598-1.5-1.5 4e-4 -0.4726 0.2235-0.9138 0.6016-1.1973l0.3984-0.3007v-8.502c0-0.2943 0.2057-0.5 0.5-0.5zm3.5 0v1h3v-1zm0 2v1h3v-1zm0 2v1h3v-1zm0 2v1h3v-1z" style="fill-opacity:.75;fill:currentColor"/>
	<path id="d" class="ColorScheme-Background" d="m10.5 2c-1.9485 0-3.5508 1.6022-3.5508 3.5507v7.2774c-0.6032 0.7883-0.9988 1.7183-1 2.7207 0 2.5005 2.0503 4.5508 4.5508 4.5508s4.5508-2.0503 4.5508-4.5508c5e-4 -1.0052-0.3952-1.9382-1-2.7285v-7.2715c0-1.9485-1.6023-3.5508-3.5508-3.5508zm0 1.0586c1.385 0 2.5 1.115 2.5 2.5v7.5488c0.6414 0.6546 1.0004 1.5347 1 2.4512 0 1.933-1.567 3.5001-3.5 3.5-1.933 1e-4 -3.5001-1.567-3.5-3.5 0-0.9144 0.36-1.7921 1-2.4453v-7.5547c0-1.385 1.115-2.5 2.5-2.5zm4.5 1v1h3v-1zm-4.5 1c-0.2943 0-0.5 0.2057-0.5 0.5v8.502l-0.3984 0.3007c-0.3781 0.2835-0.6012 0.7247-0.6016 1.1973 0 0.8402 0.6598 1.5 1.5 1.5 0.8396 0 1.499-0.6587 1.5-1.498-7e-4 -0.4721-0.2219-0.914-0.5996-1.1973l-0.4004-0.3008v-8.5039c0-0.2943-0.2057-0.5-0.5-0.5zm4.5 1v1h3v-1zm0 2v1h3v-1zm0 2v1h3v-1zm0 2v1h3v-1z" style="fill-opacity:.5;fill:currentColor"/>
</svg>
